icons/fill-new-container-box-first-aid-kit.svg

<svg xmlns="http://www.w3.org/2000/svg" width="32px" height="32px" viewBox="0 0 32 32" version="1.1">
    <title>fill-new-container-box-first-aid-kit</title>
    <g id="fill-new-container-box-first-aid-kit" stroke-width="1" fill-rule="evenodd">
        <path d="M22,3 C22.5522847,3 23,3.44771525 23,4 L23,7 L26,7 C28.209139,7 30,8.790861 30,11 L30,25 C30,27.209139 28.209139,29 26,29 L6,29 C3.790861,29 2,27.209139 2,25 L2,11 C2,8.790861 3.790861,7 6,7 L9,7 L9,4 C9,3.44771525 9.44771525,3 10,3 L22,3 Z M16,13 C15.4477153,13 15,13.4477153 15,14 L15,17 L12,17 C11.4871642,17 11.0644928,17.3860402 11.0067277,17.8833789 L11,18 C11,18.5522847 11.4477153,19 12,19 L15,19 L15,22 C15,22.5128358 15.3860402,22.9355072 15.8833789,22.9932723 L16,23 C16.5522847,23 17,22.5522847 17,22 L17,19 L20,19 C20.5128358,19 20.9355072,18.6139598 20.9932723,18.1166211 L21,18 C21,17.4477153 20.5522847,17 20,17 L17,17 L17,14 C17,13.4871642 16.6139598,13.0644928 16.1166211,13.0067277 L16,13 Z M21,5 L11,5 L11,7 L21,7 L21,5 Z" id="&#24418;&#29366;" />
    </g>
</svg>

<svg xmlns="http://www.w3.org/2000/svg" viewBox="0 0 32 32"><path fill="currentColor" d="M22 3a1 1 0 0 1 1 1v3h3a4 4 0 0 1 4 4v14a4 4 0 0 1-4 4H6a4 4 0 0 1-4-4V11a4 4 0 0 1 4-4h3V4a1 1 0 0 1 1-1zm-6 10a1 1 0 0 0-1 1v3h-3a1 1 0 0 0-.993.883L11 18a1 1 0 0 0 1 1h3v3a1 1 0 0 0 .883.993L16 23a1 1 0 0 0 1-1v-3h3a1 1 0 0 0 .993-.883L21 18a1 1 0 0 0-1-1h-3v-3a1 1 0 0 0-.883-.993zm5-8H11v2h10z"/></svg>
